blocks/icon/vk.svg

<svg xmlns="http://www.w3.org/2000/svg" viewBox="0 0 10 12"><path fill="#020000" d="M9.003 6.403c-.444-.479-1.034-.795-1.771-.948v-.065c.512-.213.913-.547 1.205-1.001.29-.452.438-.972.438-1.554 0-.502-.105-.946-.316-1.33-.212-.383-.529-.69-.958-.921-.396-.214-.818-.354-1.27-.419-.454-.068-1.116-.103-1.991-.103h-4.215v11.928h4.775c.828 0 1.51-.075 2.048-.224.535-.149 1.029-.401 1.478-.753.377-.294.68-.666.906-1.114.223-.447.335-.969.335-1.562 0-.814-.221-1.456-.664-1.934zm-6.145-4.353h.208c.534 0 .936.004 1.205.014.271.007.504.054.702.14.208.091.362.238.461.44.098.202.148.4.148.594 0 .261-.046.49-.138.688-.09.197-.256.353-.496.464-.217.1-.431.157-.635.167-.207.012-.566.015-1.079.015h-.376v-2.522zm3.815 7.007c-.125.224-.603.398-.876.513-.311.134-.614.207-.912.216-.299.012-.839.017-1.619.017h-.16v-2.99h.552c.536 0 .961.007 1.277.014.317.008.569.047.75.119.298.104.802.262.951.471.151.207.224.498.224.864 0 .289-.061.547-.187.776z"/></svg>

<?xml version="1.0" encoding="utf-8"?>
<!-- Generator: Adobe Illustrator 16.0.0, SVG Export Plug-In . SVG Version: 6.00 Build 0)  -->
<!DOCTYPE svg PUBLIC "-//W3C//DTD SVG 1.1//EN" "http://www.w3.org/Graphics/SVG/1.1/DTD/svg11.dtd">
<svg version="1.1" id="Layer_1" xmlns="http://www.w3.org/2000/svg" xmlns:xlink="http://www.w3.org/1999/xlink" x="0px" y="0px"
	 width="10px" height="12px" viewBox="0 0 10 12" enable-background="new 0 0 10 12" xml:space="preserve">
<image display="none" overflow="visible" width="1024" height="768" xlink:href="../../../private/var/folders/6k/8jjg_tx9731dtvl9q2vm8m60t9265x/T/com.apple.mail/com.apple.mail.drag-T0x7f83d9c19210.tmp.w1qm1p/Файл_публичный.png"  transform="matrix(1 0 0 1 -770 -687)">
</image>
<path fill="#020000" d="M9.003,6.403C8.559,5.924,7.969,5.608,7.232,5.455V5.39c0.512-0.213,0.913-0.547,1.205-1.001
	c0.29-0.452,0.438-0.972,0.438-1.554c0-0.502-0.105-0.946-0.316-1.33c-0.212-0.383-0.529-0.69-0.958-0.921
	C7.205,0.37,6.783,0.23,6.331,0.165C5.877,0.097,5.215,0.062,4.34,0.062H0.125V11.99H4.9c0.828,0,1.51-0.075,2.048-0.224
	c0.535-0.149,1.029-0.401,1.478-0.753c0.377-0.294,0.68-0.666,0.906-1.114c0.223-0.447,0.335-0.969,0.335-1.562
	C9.667,7.523,9.446,6.881,9.003,6.403z M2.858,2.05h0.208c0.534,0,0.936,0.004,1.205,0.014c0.271,0.007,0.504,0.054,0.702,0.14
	c0.208,0.091,0.362,0.238,0.461,0.44c0.098,0.202,0.148,0.4,0.148,0.594c0,0.261-0.046,0.49-0.138,0.688
	c-0.09,0.197-0.256,0.353-0.496,0.464C4.731,4.49,4.517,4.547,4.313,4.557C4.106,4.569,3.747,4.572,3.234,4.572H2.858V2.05z
	 M6.673,9.057C6.548,9.281,6.07,9.455,5.797,9.57C5.486,9.704,5.183,9.777,4.885,9.786C4.586,9.798,4.046,9.803,3.266,9.803H3.106
	V6.813h0.552c0.536,0,0.961,0.007,1.277,0.014c0.317,0.008,0.569,0.047,0.75,0.119c0.298,0.104,0.802,0.262,0.951,0.471
	C6.787,7.624,6.86,7.915,6.86,8.281C6.86,8.57,6.799,8.828,6.673,9.057z"/>
</svg>
